style-guide/assets/xd-icons-external-tiny.svg

<svg viewBox="0 0 12 12" xmlns="http://www.w3.org/2000/svg">
  <path d="M6 7a.999.999 0 0 1-.707-1.707L7.586 3H7a1 1 0 0 1 0-2h3.003a.988.988 0 0 1 .704.293.998.998 0 0 1 .293.704V5a1 1 0 0 1-2 0v-.586L6.707 6.707A.997.997 0 0 1 6 7m3 4H2a1 1 0 0 1-1-1V3a1 1 0 0 1 1-1h2a1 1 0 0 1 0 2H3v5h5V8a1 1 0 0 1 2 0v2a1 1 0 0 1-1 1" fill="#000" fill-rule="evenodd"/>
</svg>

<?xml version="1.0" encoding="UTF-8"?>
<svg width="12px" height="12px" viewBox="0 0 12 12" version="1.1" xmlns="http://www.w3.org/2000/svg" xmlns:xlink="http://www.w3.org/1999/xlink">
    <!-- Generator: Sketch 51.3 (57544) - http://www.bohemiancoding.com/sketch -->
    <title>external link</title>
    <desc>Created with Sketch.</desc>
    <defs></defs>
    <g id="external-link" stroke="none" stroke-width="1" fill="none" fill-rule="evenodd">
        <path d="M6,7 C5.744,7 5.488,6.902 5.293,6.707 C4.902,6.316 4.902,5.684 5.293,5.293 L7.586,3 L7,3 C6.448,3 6,2.552 6,2 C6,1.448 6.448,1 7,1 L10,1 L10.003,1 C10.137,1 10.265,1.027 10.381,1.075 C10.5,1.124 10.611,1.197 10.707,1.293 C10.803,1.389 10.876,1.5 10.925,1.619 C10.973,1.735 11,1.863 11,1.997 L11,2 L11,5 C11,5.552 10.552,6 10,6 C9.448,6 9,5.552 9,5 L9,4.414 L6.707,6.707 C6.512,6.902 6.256,7 6,7 M9,11 L2,11 C1.448,11 1,10.552 1,10 L1,3 C1,2.448 1.448,2 2,2 L4,2 C4.552,2 5,2.448 5,3 C5,3.552 4.552,4 4,4 L3,4 L3,9 L8,9 L8,8 C8,7.448 8.448,7 9,7 C9.552,7 10,7.448 10,8 L10,10 C10,10.552 9.552,11 9,11" id="Fill-1" fill="#000000"></path>
    </g>
</svg>
